X: 9
M:4/4
L:1/8
K:C
c4c4|c6C2||F2F2F3A|GFED DCB,C|G2G2G3E|FGAG F3C|
|:AA/A/ AA ACFA|GG/G/ GG GEFG|AA/A/ AA ACFA| G2E2F3C:|



